public/img/logo.svg

<svg id="Layer_1" xmlns="http://www.w3.org/2000/svg" viewBox="0 0 24 24"><style>.st0{fill:#6ed3cf}</style><path class="st0" d="M14 12c0 1.1-.9 2-2 2s-2-.9-2-2 .9-2 2-2 2 .9 2 2zm10 0c0 6.6-5.4 12-12 12S0 18.6 0 12 5.4 0 12 0s12 5.4 12 12zM9.2 19.5C7 18.7 5.3 17 4.5 14.8l-1 .1c.9 2.6 3 4.7 5.6 5.6l.1-1zm.3-2.1c-1.3-.6-2.3-1.6-2.9-2.9l-1 .1c.7 1.7 2.1 3.1 3.8 3.8l.1-1zM16 12c0-2.2-1.8-4-4-4s-4 1.8-4 4 1.8 4 4 4 4-1.8 4-4zm2.5-2.7c-.7-1.7-2.1-3.1-3.8-3.8l-.1 1c1.3.6 2.3 1.6 2.9 2.9l1-.1zm2-.2c-.9-2.6-3-4.7-5.6-5.6l-.1 1c2.2.8 3.9 2.5 4.7 4.7l1-.1z"/></svg>

<?xml version="1.0" encoding="utf-8"?>
<!-- Generator: Adobe Illustrator 21.0.0, SVG Export Plug-In . SVG Version: 6.00 Build 0)  -->
<svg version="1.1" id="Layer_1" xmlns="http://www.w3.org/2000/svg" xmlns:xlink="http://www.w3.org/1999/xlink" x="0px" y="0px"
	 viewBox="0 0 24 24" style="enable-background:new 0 0 24 24;" xml:space="preserve">
<style type="text/css">
	.st0{fill:#6ED3CF;}
</style>
<path class="st0" d="M14,12c0,1.1-0.9,2-2,2s-2-0.9-2-2s0.9-2,2-2S14,10.9,14,12z M24,12c0,6.6-5.4,12-12,12S0,18.6,0,12S5.4,0,12,0
	S24,5.4,24,12z M9.2,19.5C7,18.7,5.3,17,4.5,14.8l-1,0.1c0.9,2.6,3,4.7,5.6,5.6L9.2,19.5z M9.5,17.4c-1.3-0.6-2.3-1.6-2.9-2.9
	l-1,0.1c0.7,1.7,2.1,3.1,3.8,3.8L9.5,17.4z M16,12c0-2.2-1.8-4-4-4s-4,1.8-4,4s1.8,4,4,4S16,14.2,16,12z M18.5,9.3
	c-0.7-1.7-2.1-3.1-3.8-3.8l-0.1,1c1.3,0.6,2.3,1.6,2.9,2.9L18.5,9.3z M20.5,9.1c-0.9-2.6-3-4.7-5.6-5.6l-0.1,1
	C17,5.3,18.7,7,19.5,9.2L20.5,9.1z"/>
</svg>
